public/logos/logos-lidl.svg

<svg width="24" height="24" viewBox="0 0 24 24" fill="none" xmlns="http://www.w3.org/2000/svg">
<g clip-path="url(#clip0_773_4098)">
<path d="M2.40002 2.39999V21.6H21.6V2.39999H2.40002Z" fill="white"/>
<path d="M2.56726 2.56726H21.4335V21.4335H2.56726V2.56726Z" fill="#1752A0"/>
<path d="M12 3.0675C7.0657 3.06675 3.0652 7.06575 3.06445 12C3.0637 16.9343 7.0627 20.9348 11.997 20.9355C16.9312 20.9363 20.9317 16.9373 20.9325 12.003C20.931 7.07025 16.9335 3.0705 12 3.0675Z" fill="#E4151A"/>
<path fill-rule="evenodd" clip-rule="evenodd" d="M12 3.63226C7.37845 3.63226 3.6322 7.37851 3.6322 12C3.6322 16.6215 7.37845 20.3678 12 20.3678C16.62 20.3678 20.3662 16.623 20.3677 12.003C20.3677 7.38151 16.6222 3.63376 12 3.63226Z" fill="#FBEA26"/>
<path fill-rule="evenodd" clip-rule="evenodd" d="M11.481 12.2355L10.0035 10.758L8.30029 12.4642V13.0372L8.72929 12.6067L9.91804 13.7985L9.47929 14.2357L9.76504 14.523L12.1425 12.1425V11.5717L11.481 12.2355Z" fill="#E4151A"/>
<path fill-rule="evenodd" clip-rule="evenodd" d="M4.58398 10.4475H7.21498V11.0153H6.77623V12.852L8.30023 12.0038V13.5578H4.58398V12.987H5.02498V11.0153H4.58398V10.4475ZM15.678 10.4475V11.0153H16.119V12.987H15.678V13.5578H19.398V12.0038L17.8717 12.852V11.0153H18.3127V10.4475H15.678Z" fill="#1752A0"/>
<path fill-rule="evenodd" clip-rule="evenodd" d="M9.78599 8.67899C10.3035 8.67899 10.7227 9.09824 10.7227 9.61574C10.7227 10.1332 10.3035 10.5525 9.78599 10.5525C9.26849 10.5525 8.84924 10.1332 8.84924 9.61574C8.84924 9.61499 8.84924 9.61349 8.84924 9.61274C8.84924 9.09749 9.26699 8.67974 9.78224 8.67974C9.78374 8.67899 9.78524 8.67899 9.78599 8.67899Z" fill="#E4151A"/>
<path d="M11.7075 10.4475V11.0153H12.147V12.987H11.703V13.5578H14.2073C16.0673 13.5578 16.0905 10.4475 14.2125 10.4475H11.7075ZM13.7348 11.4158H13.8398C14.3888 11.4158 14.3895 12.5843 13.86 12.5843H13.7348V11.4158Z" fill="#1752A0"/>
</g>
<defs>
<clipPath id="clip0_773_4098">
<rect width="24" height="24" fill="white"/>
</clipPath>
</defs>
</svg>

<?xml version="1.0" encoding="UTF-8"?>
<svg id="Layer_1" xmlns="http://www.w3.org/2000/svg" xmlns:xlink="http://www.w3.org/1999/xlink" version="1.1" viewBox="0 0 24 24">
  <!-- Generator: Adobe Illustrator 30.2.1, SVG Export Plug-In . SVG Version: 2.1.1 Build 1)  -->
  <defs>
    <style>
      .st0 {
        fill: none;
      }

      .st1, .st2 {
        fill: #e4151a;
      }

      .st1, .st3, .st4 {
        fill-rule: evenodd;
      }

      .st5, .st3 {
        fill: #1752a0;
      }

      .st6 {
        fill: #fff;
      }

      .st4 {
        fill: #fbea26;
      }

      .st7 {
        clip-path: url(#clippath);
      }
    </style>
    <clipPath id="clippath">
      <rect class="st0" y="0" width="24" height="24"/>
    </clipPath>
  </defs>
  <g class="st7">
    <g>
      <path class="st6" d="M2.4,2.4v19.2h19.2V2.4H2.4Z"/>
      <path class="st2" d="M12,3.07c-4.93,0-8.93,4-8.94,8.93,0,4.93,4,8.93,8.93,8.94,4.93,0,8.93-4,8.94-8.93,0-4.93-4-8.93-8.93-8.94Z"/>
      <path class="st4" d="M12,3.63C7.38,3.63,3.63,7.38,3.63,12s3.75,8.37,8.37,8.37,8.37-3.74,8.37-8.36c0-4.62-3.75-8.37-8.37-8.37Z"/>
      <path class="st1" d="M11.48,12.24l-1.48-1.48-1.7,1.71v.57l.43-.43,1.19,1.19-.44.44.29.29,2.38-2.38v-.57l-.66.66Z"/>
      <path class="st3" d="M4.58,10.45h2.63v.57h-.44v1.84l1.52-.85v1.55h-3.72v-.57h.44v-1.97h-.44v-.57ZM15.68,10.45v.57h.44v1.97h-.44v.57h3.72v-1.55l-1.53.85v-1.84h.44v-.57h-2.63Z"/>
      <path class="st1" d="M9.79,8.68c.52,0,.94.42.94.94s-.42.94-.94.94-.94-.42-.94-.94h0c0-.52.42-.94.93-.94,0,0,0,0,0,0Z"/>
      <path class="st5" d="M11.71,10.45v.57h.44v1.97h-.44v.57h2.5c1.86,0,1.88-3.11,0-3.11h-2.5ZM13.73,11.42h.1c.55,0,.55,1.17.02,1.17h-.13v-1.17Z"/>
    </g>
  </g>
</svg>
